!!!SOCIAL_FUNCTION:	war songs
!!!PDT:	1929
!!!OTL: No_136_You_Beg_for_Food_Like_a_Woman.krn
!!!REG: Southwest
!!!LANG: Non-Tone
!!!LING_GROUP: Uto-Aztecan
**kern
*staff1
=1-
*clefF4
*k[f#c#g#d#]
*M3/4
4c#\
4c#\
4B\
=2||
*M2/4
2c#\
=3
(4.B\
8F#\)
=4||
*M3/4
8G#\L
8F#\J
4E\
8C#/L
8BB/J
=5||
*M2/4
4BB/
4r
=6||
*M3/4
4G#\
4G#\
8F#\L
8E\J
=7
2G#\
4G#\
=8||
*M2/4
(8G#\L
8E\J)
4F#\
=9||
*M3/4
2E\
8C#/L
8BB/J
=10||
*M2/4
4BB/
4r
=11||
*M3/4
4G#\
4G#\
8F#\L
8E\J
=12||
*M2/4
4G#\
4G#\
=13||
*M3/4
(4G#\
4E\)
4F#\
=14
4E\
4E\
8C#/L
8BB/J
=15
2E\
4r
==
*-
